findly-builder/apps/searchassist/src/assets/icons/actions/views.svg

<svg width="10" height="8" viewBox="0 0 10 8" fill="none" xmlns="http://www.w3.org/2000/svg">
<path d="M5 0C2.24399 0 0.000125555 2.30804 0.000125555 5.14286C-0.00421434 5.34822 0.10429 5.54018 0.273556 5.64286C0.447163 5.75 0.664171 5.75 0.837778 5.64286C1.00704 5.54018 1.11555 5.34822 1.11121 5.14286C1.11121 2.92857 2.84728 1.14286 5 1.14286C7.15272 1.14286 8.88879 2.92857 8.88879 5.14286C8.88445 5.34822 8.99295 5.54018 9.16222 5.64286C9.33583 5.75 9.55284 5.75 9.72644 5.64286C9.89571 5.54018 10.0042 5.34822 9.99987 5.14286C9.99987 2.30804 7.75601 0 5 0ZM5 2.28571C3.47226 2.28571 2.22229 3.57143 2.22229 5.14286C2.22229 6.71429 3.47226 8 5 8C6.52774 8 7.77771 6.71429 7.77771 5.14286C7.77771 3.57143 6.52774 2.28571 5 2.28571ZM5 3.42857C5.9288 3.42857 6.66662 4.1875 6.66662 5.14286C6.66662 6.09822 5.9288 6.85714 5 6.85714C4.0712 6.85714 3.33337 6.09822 3.33337 5.14286C3.33337 4.1875 4.0712 3.42857 5 3.42857Z" fill="#9AA0A6"/>
</svg>

<svg width="10" height="8" fill="none" xmlns="http://www.w3.org/2000/svg"><path d="M5 0C2.244 0 0 2.308 0 5.143a.575.575 0 0 0 .274.5c.173.107.39.107.564 0a.575.575 0 0 0 .273-.5c0-2.214 1.736-4 3.889-4 2.153 0 3.889 1.786 3.889 4a.575.575 0 0 0 .273.5c.174.107.39.107.564 0a.575.575 0 0 0 .274-.5C10 2.308 7.756 0 5 0Zm0 2.286c-1.528 0-2.778 1.285-2.778 2.857C2.222 6.714 3.472 8 5 8s2.778-1.286 2.778-2.857c0-1.572-1.25-2.857-2.778-2.857Zm0 1.143c.929 0 1.667.759 1.667 1.714S5.929 6.857 5 6.857s-1.667-.759-1.667-1.714S4.071 3.429 5 3.429Z" fill="#9AA0A6"/></svg>
